src/components/atoms/Icon/svgs/phone-call.svg

<svg width="24" height="24" viewBox="0 0 24 24" fill="none" xmlns="http://www.w3.org/2000/svg">
    <path
        d="M15.0501 5C16.0268 5.19057 16.9244 5.66826 17.6281 6.37194C18.3318 7.07561 18.8095 7.97326 19.0001 8.95M15.0501 1C17.0793 1.22544 18.9716 2.13417 20.4163 3.57701C21.8609 5.01984 22.7721 6.91101 23.0001 8.94M22.0001 16.92V19.92C22.0012 20.1985 21.9441 20.4742 21.8326 20.7293C21.721 20.9845 21.5574 21.2136 21.3521 21.4019C21.1469 21.5901 20.9046 21.7335 20.6408 21.8227C20.377 21.9119 20.0974 21.9451 19.8201 21.92C16.7429 21.5856 13.7871 20.5341 11.1901 18.85C8.77388 17.3147 6.72539 15.2662 5.19006 12.85C3.50003 10.2412 2.4483 7.27099 2.12006 4.18C2.09507 3.90347 2.12793 3.62476 2.21656 3.36162C2.30518 3.09849 2.44763 2.85669 2.63482 2.65162C2.82202 2.44655 3.04986 2.28271 3.30385 2.17052C3.55783 2.05833 3.8324 2.00026 4.11006 2H7.11006C7.59536 1.99522 8.06585 2.16708 8.43382 2.48353C8.80179 2.79999 9.04213 3.23945 9.11005 3.72C9.23668 4.68007 9.47151 5.62273 9.81006 6.53C9.9446 6.88792 9.97372 7.27691 9.89396 7.65088C9.81421 8.02485 9.62892 8.36811 9.36005 8.64L8.09006 9.91C9.51361 12.4135 11.5865 14.4864 14.0901 15.91L15.3601 14.64C15.6319 14.3711 15.9752 14.1858 16.3492 14.1061C16.7231 14.0263 17.1121 14.0555 17.4701 14.19C18.3773 14.5286 19.32 14.7634 20.2801 14.89C20.7658 14.9585 21.2095 15.2032 21.5266 15.5775C21.8437 15.9518 22.0122 16.4296 22.0001 16.92Z"
        stroke="currentColor" stroke-width="2" stroke-linecap="round" stroke-linejoin="round" />
</svg>

<svg viewBox="0 0 24 24" fill="none" xmlns="http://www.w3.org/2000/svg">
    <path d="M15.05 5A5 5 0 0119 8.95M15.05 1A9 9 0 0123 8.94m-1 7.98v3a2.001 2.001 0 01-2.18 2 19.79 19.79 0 01-8.63-3.07 19.499 19.499 0 01-6-6 19.79 19.79 0 01-3.07-8.67A2 2 0 014.11 2h3a2 2 0 012 1.72c.127.96.362 1.903.7 2.81a2 2 0 01-.45 2.11L8.09 9.91a16 16 0 006 6l1.27-1.27a1.999 1.999 0 012.11-.45c.907.339 1.85.573 2.81.7A2 2 0 0122 16.92z" stroke="currentColor" stroke-width="2" stroke-linecap="round" stroke-linejoin="round"/>
</svg>
